hosted/assets/icon/widgets/dark-mode/calendar.svg

<svg width="50" height="50" viewBox="0 0 50 50" fill="none" xmlns="http://www.w3.org/2000/svg">
<path d="M35 5H15V9H11V5H3V13H47V5H39V9H35V5Z" fill="#E75F63"/>
<path d="M12 0C10.9062 0 10 0.90625 10 2V4H4C3.47656 4 2.94531 4.19141 2.57031 4.57031C2.19141 4.94531 2 5.47656 2 6V46C2 46.5234 2.19141 47.0547 2.57031 47.4336C2.94531 47.8086 3.47656 48 4 48H46C46.5234 48 47.0547 47.8086 47.4336 47.4336C47.8086 47.0547 48 46.5234 48 46V6C48 5.47656 47.8086 4.94531 47.4336 4.57031C47.0547 4.19141 46.5234 4 46 4H40V2C40 0.90625 39.0938 0 38 0H36C34.9062 0 34 0.90625 34 2V4H16V2C16 0.90625 15.0938 0 14 0H12ZM12 2H14V8H12V2ZM36 2H38V8H36V2ZM4 6H10V8C10 9.09375 10.9062 10 12 10H14C15.0938 10 16 9.09375 16 8V6H34V8C34 9.09375 34.9062 10 36 10H38C39.0938 10 40 9.09375 40 8V6H46V13H4V6ZM4 15H46V46H4V15ZM10 19V42H40V19H10ZM12 21H17V26H12V21ZM19 21H24V26H19V21ZM26 21H31V26H26V21ZM33 21H38V26H33V21ZM12 28H17V33H12V28ZM19 28H24V33H19V28ZM26 28H31V33H26V28ZM33 28H38V33H33V28ZM12 35H17V40H12V35ZM19 35H24V40H19V35ZM26 35H31V40H26V35ZM33 35H38V40H33V35Z" fill="white"/>
</svg>

<svg width="50" height="50" fill="none" xmlns="http://www.w3.org/2000/svg"><path d="M35 5H15v4h-4V5H3v8h44V5h-8v4h-4V5z" fill="#E75F63"/><path d="M12 0c-1.094 0-2 .906-2 2v2H4c-.523 0-1.055.191-1.43.57C2.191 4.945 2 5.477 2 6v40c0 .523.191 1.055.57 1.434.375.375.907.566 1.43.566h42c.523 0 1.055-.191 1.434-.566.375-.38.566-.91.566-1.434V6c0-.523-.191-1.055-.566-1.43-.38-.379-.91-.57-1.434-.57h-6V2c0-1.094-.906-2-2-2h-2c-1.094 0-2 .906-2 2v2H16V2c0-1.094-.906-2-2-2h-2zm0 2h2v6h-2V2zm24 0h2v6h-2V2zM4 6h6v2c0 1.094.906 2 2 2h2c1.094 0 2-.906 2-2V6h18v2c0 1.094.906 2 2 2h2c1.094 0 2-.906 2-2V6h6v7H4V6zm0 9h42v31H4V15zm6 4v23h30V19H10zm2 2h5v5h-5v-5zm7 0h5v5h-5v-5zm7 0h5v5h-5v-5zm7 0h5v5h-5v-5zm-21 7h5v5h-5v-5zm7 0h5v5h-5v-5zm7 0h5v5h-5v-5zm7 0h5v5h-5v-5zm-21 7h5v5h-5v-5zm7 0h5v5h-5v-5zm7 0h5v5h-5v-5zm7 0h5v5h-5v-5z" fill="#fff"/></svg>
